X: 39977
T: Three Days To Go
R: reel
M: 4/4
K: Amixolydian
|:BA AB Bd da|g2 ag fd dA|Bg gb ag fd|ed cd de ag|
fz dc de fa|gd ag fd dA|GA B/c/d gf ed|cA AG A4:|
|:FG Ad fe ed|ez AG GA AG|FG Ad fz ab|gf ed de ea|
fd dc dA FD|BA GF G2 de|fd fa gf ed|cd ec d4:|

